svgs/feature-light.svg

<svg xmlns="http://www.w3.org/2000/svg" width="400" height="400" fill="none" viewBox="0 0 400 400"><path fill="#F0F3F5" d="M241.256 38h-75.421v127.894h-21.178v-56.285H66.54c-7.593 0-13.786 6.209-13.786 13.821v64.498H28.779c-5.994 0-10.888 4.907-10.888 10.916v92.341h-2.398A6.49 6.49 0 0 0 9 297.695v25.038a6.49 6.49 0 0 0 6.493 6.51h240.148l2.097-7.412 10.19-71.508v-196.6c0-11.617-7.692-15.723-26.672-15.723"/><path fill="#999" d="M390.997 305.103h-2l.001.057zm-6.393 4.41a2 2 0 0 0 0 4zm-60.936-10.918-1.892-.648a2 2 0 0 0 .265 1.81c.375.526.981.838 1.627.838zm54.842 0v2a2 2 0 0 0 1.892-2.651zm-23.175-67.403 1.891-.65-.012-.035zm-13.785 13.023a2 2 0 1 0 0 4zm18.68 4a2 2 0 0 0 0-4zm-25.074 14.228a2 2 0 1 0 0 4zm31.567 4a2 2 0 0 0 0-4zm-37.46 13.126a2 2 0 1 0 0 4zm43.254 4a2 2 0 0 0 0-4zM79.825 91.981v-2a2 2 0 0 0-2 2zm141.951 0h2a2 2 0 0 0-2-2zm0 116.577v2a2 2 0 0 0 2-2zm-141.951 0h-2a2 2 0 0 0 2 2zm15.184-100.949a2 2 0 1 0 0 4zm107.887 4a2 2 0 0 0 0-4zM95.009 124.733a2 2 0 0 0 0 4zm107.886 4a2 2 0 1 0 0-4zm181.709 180.78h-67.329v4h67.329zm-67.329 0c-2.467 0-4.393-1.984-4.393-4.41h-4c0 4.584 3.667 8.41 8.393 8.41zm-4.393-4.41a4.38 4.38 0 0 1 4.393-4.41v-4a8.38 8.38 0 0 0-8.393 8.41zm4.393-4.41h67.329v-4h-67.329zm67.329 0c2.467 0 4.393 1.984 4.393 4.41h4c0-4.585-3.667-8.41-8.393-8.41zm4.394 4.467c.067 2.329-1.875 4.353-4.394 4.353v4c4.673 0 8.526-3.786 8.393-8.467zm-44.146-74.616-23.076 67.403 3.784 1.295 23.076-67.402zm-21.184 70.051h54.842v-4h-54.842zm56.734-2.651-23.176-67.402-3.783 1.3 23.176 67.403zm-23.188-67.437c-2.116-5.798-10.329-5.934-12.363.04l3.786 1.29c.762-2.238 3.938-2.374 4.819.041zm-15.664 17.708h18.68v-4h-18.68zm18.68-4h-18.68v4h18.68zm-25.074 22.228h31.567v-4h-31.567zm31.567-4h-31.567v4h31.567zm-37.46 21.126h43.254v-4h-43.254zm43.254-4h-43.254v4h43.254zM79.825 93.981h141.951v-4H79.825zm139.951-2v116.577h4V91.981zm2 114.577H79.825v4h141.951zm-139.951 2V91.981h-4v116.577zm13.184-96.949h107.887v-4H95.009zm107.887-4H95.009v4h107.887zM95.009 128.733h107.886v-4H95.009zm107.886-4H95.009v4h107.886z"/><path fill="#FFD493" d="m34.674 338.758 87.707 9.715c2.298.2 4.096-3.005 4.096-7.011V149.671c0-4.006-1.798-7.211-4.096-7.011l-87.707 11.718c-1.998.2-3.597 3.305-3.597 7.111v170.259c0 3.705 1.599 6.91 3.597 7.01"/><path fill="#FFBE5C" d="m274.821 341.763-152.14 6.71c-3.896.2-7.093-3.005-7.093-7.011V149.671c0-4.006 3.197-7.211 7.093-7.011l152.14 6.71c3.396.201 6.193 3.305 6.193 7.111v178.271c0 3.706-2.797 6.911-6.193 7.011"/><path fill="#FFD493" d="M121.682 149.369v192.893l152.939-6.409V154.878z"/><path fill="#999" d="m196.603 339.156 78.017-3.305V154.876l-78.017-2.804z" opacity=".16"/><path fill="#FFBE5C" d="M152.449 277.466h-30.768v64.798l42.156-1.803c.499-1.302.699-2.704.699-4.106v-46.771c0-6.61-5.394-12.118-12.087-12.118"/><path fill="#DD7E10" d="M138.464 203.652c2.096 0 3.796-2.063 3.796-4.607s-1.7-4.607-3.796-4.607-3.796 2.062-3.796 4.607c0 2.544 1.699 4.607 3.796 4.607m11.888 0c2.096 0 3.796-2.063 3.796-4.607s-1.7-4.607-3.796-4.607-3.796 2.062-3.796 4.607c0 2.544 1.699 4.607 3.796 4.607m11.987 0c2.097 0 3.796-2.063 3.796-4.607s-1.699-4.607-3.796-4.607-3.796 2.062-3.796 4.607c0 2.544 1.7 4.607 3.796 4.607m-34.165 11.465a1.756 1.756 0 1 0 0 3.513zm.128 45.874a1.756 1.756 0 0 0-.255 3.504zm12.359-45.874a1.756 1.756 0 1 0 0 3.513zm.128 45.874a1.758 1.758 0 0 0-.255 3.504zm12.359-45.874a1.756 1.756 0 1 0 0 3.513zm.127 45.874a1.757 1.757 0 0 0-.254 3.504zm12.261-45.874a1.756 1.756 0 1 0 0 3.513zm.127 45.874a1.756 1.756 0 0 0-.255 3.504zm-37.489-42.361c1.776 0 2.954.664 3.75 1.756.852 1.17 1.387 3.01 1.387 5.501h3.513c0-2.917-.615-5.584-2.06-7.569-1.502-2.062-3.77-3.201-6.59-3.201zm5.137 7.257v28.243h3.513v-28.243zm0 28.243c0 4.038-1.478 5.561-2.581 6.21a4.84 4.84 0 0 1-2.298.651h-.13l-.018-.001h.004l.006.001h.006c.001 0 .002 0-.126 1.752-.127 1.752-.126 1.752-.125 1.752h.003l.005.001.013.001.034.001.098.004q.118.005.307.001a8.36 8.36 0 0 0 4.003-1.135c2.343-1.379 4.312-4.163 4.312-9.238zm7.35-35.5c1.776 0 2.954.664 3.75 1.756.852 1.17 1.387 3.01 1.387 5.501h3.513c0-2.917-.615-5.584-2.06-7.569-1.502-2.062-3.77-3.201-6.59-3.201zm5.137 7.257v28.243h3.513v-28.243zm0 28.243c0 4.038-1.478 5.561-2.581 6.21a4.84 4.84 0 0 1-2.298.651h-.13l-.018-.001h.004l.006.001h.005c.002 0 .003 0-.125 1.752-.127 1.752-.126 1.752-.125 1.752h.003l.005.001.013.001.034.001.098.004q.117.005.307.001a8.36 8.36 0 0 0 4.003-1.135c2.343-1.379 4.312-4.163 4.312-9.238zm7.35-35.5c1.776 0 2.954.664 3.75 1.756.852 1.17 1.386 3.01 1.386 5.501h3.513c0-2.917-.614-5.584-2.059-7.569-1.502-2.062-3.77-3.201-6.59-3.201zm5.136 7.257v28.243h3.513v-28.243zm0 28.243c0 4.038-1.477 5.561-2.58 6.21a4.84 4.84 0 0 1-2.298.651h-.13l-.018-.001h.004l.006.001h.005c.001 0 .002 0-.125 1.752s-.126 1.752-.125 1.752h.003l.005.001.013.001.034.001.097.004q.118.005.308.001a8.35 8.35 0 0 0 4.002-1.135c2.344-1.379 4.312-4.163 4.312-9.238zm7.252-35.5c1.775 0 2.954.664 3.749 1.756.853 1.17 1.387 3.01 1.387 5.501h3.513c0-2.917-.615-5.584-2.06-7.569-1.502-2.062-3.77-3.201-6.589-3.201zm5.136 7.257v28.243h3.513v-28.243zm0 28.243c0 4.038-1.478 5.561-2.581 6.21a4.8 4.8 0 0 1-1.735.601 5 5 0 0 1-.563.05h-.13l-.018-.001h.005l.005.001h.006c.001 0 .002 0-.125 1.752-.128 1.752-.127 1.752-.125 1.752h.002l.006.001.013.001.033.001.098.004q.118.005.307.001a8.36 8.36 0 0 0 4.003-1.135c2.343-1.379 4.312-4.163 4.312-9.238z"/><path fill="#FFBE5C" d="m337.854 353.278-150.842 8.713c-3.896.2-7.392-2.905-7.692-6.911l-17.181-191.791c-.4-4.006 2.497-7.211 6.493-7.111l152.04 4.707c3.396.1 6.493 3.205 6.793 7.011l15.883 178.271c.3 3.705-2.098 6.91-5.494 7.111"/><path fill="#fff" d="M171.029 170.6c2.483 0 4.495-2.197 4.495-4.908 0-2.71-2.012-4.907-4.495-4.907s-4.495 2.197-4.495 4.907 2.012 4.908 4.495 4.908"/><path fill="#FFD493" d="M319.973 174.304c2.482 0 4.495-2.197 4.495-4.907s-2.013-4.908-4.495-4.908-4.495 2.197-4.495 4.908c0 2.71 2.012 4.907 4.495 4.907"/><path fill="#fff" d="M188.51 359.187c2.483 0 4.496-2.198 4.496-4.908s-2.013-4.907-4.496-4.907c-2.482 0-4.495 2.197-4.495 4.907s2.013 4.908 4.495 4.908m146.946-8.814c2.483 0 4.496-2.197 4.496-4.907s-2.013-4.908-4.496-4.908c-2.482 0-4.495 2.197-4.495 4.908 0 2.71 2.013 4.907 4.495 4.907"/><path fill="#DCA553" fill-opacity=".7" d="M327.465 167.896c-.3-3.706-3.397-6.911-6.793-7.011l-96.499-3.004 4.995 55.284c.4 4.707 4.895 8.412 10.089 8.312l37.061-.4c15.484.2 17.282 12.519 21.278 19.73.699 1.302 2.697 1.101 2.997-.201 1.598-6.81 2.997-19.83 15.284-19.93l16.183-.2z"/><path stroke="#FFD493" stroke-linejoin="round" stroke-width="4" d="M121.682 287.179h29.768c2.597 0 4.396 1.803 4.396 3.906 0 2.203-1.799 3.906-4.396 3.906h-29.768"/><path fill="#FFD493" d="m372.617 84.773-117.676-3.606c-5.095.2-9.29 4.607-9.29 9.715v83.827c0 5.208 4.195 9.315 9.29 9.114l37.061-.4c15.483.2 16.083 13.821 19.479 21.733.6 1.402 2.598 1.202 2.997-.201 2.198-7.511 4.795-21.733 17.082-21.933l40.857-.401c5.295-.1 9.69-4.506 9.69-9.814v-78.92c.1-5.208-4.196-9.315-9.49-9.114"/><path fill="#DD7E10" fill-rule="evenodd" d="m288.206 117.02-22.976 10.716v8.113l30.668-14.322v-8.914L265.23 97.591v8.212zm41.856 27.542-30.768-.401v7.712l30.768.501z" clip-rule="evenodd"/></svg>

<svg width="400" height="400" viewBox="0 0 400 400" fill="none" xmlns="http://www.w3.org/2000/svg">
<g id="feature">
<g id="feature_2">
<path id="Path" d="M241.256 38H165.835V165.894H144.657V109.609H66.5395C58.9475 109.609 52.754 115.818 52.754 123.43V187.928H28.7792C22.7855 187.928 17.8906 192.835 17.8906 198.844V291.185H15.4932C11.897 291.185 9 294.089 9 297.695V322.733C9 326.338 11.897 329.243 15.4932 329.243H255.641L257.738 321.831L267.928 250.323V53.7239C267.928 42.1062 260.236 38 241.256 38Z" fill="#F0F3F5"/>
<path id="Shape" d="M390.997 305.103H388.997C388.997 305.122 388.998 305.141 388.998 305.16L390.997 305.103ZM384.604 309.513C383.5 309.513 382.604 310.408 382.604 311.513C382.604 312.617 383.5 313.513 384.604 313.513V309.513ZM323.668 298.595L321.776 297.947C321.567 298.558 321.665 299.232 322.041 299.757C322.416 300.283 323.022 300.595 323.668 300.595V298.595ZM378.51 298.595V300.595C379.157 300.595 379.763 300.282 380.138 299.756C380.514 299.23 380.612 298.555 380.402 297.944L378.51 298.595ZM355.335 231.192L357.226 230.542C357.222 230.53 357.218 230.518 357.214 230.507L355.335 231.192ZM341.55 244.215C340.445 244.215 339.55 245.11 339.55 246.215C339.55 247.319 340.445 248.215 341.55 248.215V244.215ZM360.23 248.215C361.335 248.215 362.23 247.319 362.23 246.215C362.23 245.11 361.335 244.215 360.23 244.215V248.215ZM335.156 262.443C334.051 262.443 333.156 263.338 333.156 264.443C333.156 265.547 334.051 266.443 335.156 266.443V262.443ZM366.723 266.443C367.827 266.443 368.723 265.547 368.723 264.443C368.723 263.338 367.827 262.443 366.723 262.443V266.443ZM329.263 279.569C328.158 279.569 327.263 280.464 327.263 281.569C327.263 282.673 328.158 283.569 329.263 283.569V279.569ZM372.517 283.569C373.622 283.569 374.517 282.673 374.517 281.569C374.517 280.464 373.622 279.569 372.517 279.569V283.569ZM79.825 91.9805V89.9805C78.7204 89.9805 77.825 90.8759 77.825 91.9805H79.825ZM221.776 91.9805H223.776C223.776 90.8759 222.88 89.9805 221.776 89.9805V91.9805ZM221.776 208.558V210.558C222.88 210.558 223.776 209.662 223.776 208.558H221.776ZM79.825 208.558H77.825C77.825 209.662 78.7204 210.558 79.825 210.558V208.558ZM95.0092 107.609C93.9046 107.609 93.0092 108.504 93.0092 109.609C93.0092 110.713 93.9046 111.609 95.0092 111.609V107.609ZM202.896 111.609C204 111.609 204.896 110.713 204.896 109.609C204.896 108.504 204 107.609 202.896 107.609V111.609ZM95.0089 124.733C93.9043 124.733 93.0089 125.629 93.0089 126.733C93.0089 127.838 93.9043 128.733 95.0089 128.733V124.733ZM202.895 128.733C204 128.733 204.895 127.838 204.895 126.733C204.895 125.629 204 124.733 202.895 124.733V128.733ZM384.604 309.513H317.275V313.513H384.604V309.513ZM317.275 309.513C314.808 309.513 312.882 307.529 312.882 305.103H308.882C308.882 309.687 312.549 313.513 317.275 313.513V309.513ZM312.882 305.103C312.882 302.617 314.868 300.693 317.275 300.693V296.693C312.69 296.693 308.882 300.377 308.882 305.103H312.882ZM317.275 300.693H384.604V296.693H317.275V300.693ZM384.604 300.693C387.071 300.693 388.997 302.677 388.997 305.103H392.997C392.997 300.518 389.33 296.693 384.604 296.693V300.693ZM388.998 305.16C389.065 307.489 387.123 309.513 384.604 309.513V313.513C389.277 313.513 393.13 309.727 392.997 305.046L388.998 305.16ZM344.852 230.544L321.776 297.947L325.56 299.242L348.636 231.84L344.852 230.544ZM323.668 300.595H378.51V296.595H323.668V300.595ZM380.402 297.944L357.226 230.542L353.443 231.842L376.619 299.245L380.402 297.944ZM357.214 230.507C355.098 224.709 346.885 224.573 344.851 230.547L348.637 231.837C349.399 229.599 352.575 229.463 353.456 231.878L357.214 230.507ZM341.55 248.215H360.23V244.215H341.55V248.215ZM360.23 244.215H341.55V248.215H360.23V244.215ZM335.156 266.443H366.723V262.443H335.156V266.443ZM366.723 262.443H335.156V266.443H366.723V262.443ZM329.263 283.569H372.517V279.569H329.263V283.569ZM372.517 279.569H329.263V283.569H372.517V279.569ZM79.825 93.9805H221.776V89.9805H79.825V93.9805ZM219.776 91.9805V208.558H223.776V91.9805H219.776ZM221.776 206.558H79.825V210.558H221.776V206.558ZM81.825 208.558V91.9805H77.825V208.558H81.825ZM95.0092 111.609H202.896V107.609H95.0092V111.609ZM202.896 107.609H95.0092V111.609H202.896V107.609ZM95.0089 128.733H202.895V124.733H95.0089V128.733ZM202.895 124.733H95.0089V128.733H202.895V124.733Z" fill="#999999"/>
<path id="Path_2" d="M34.6736 338.758L122.381 348.473C124.679 348.673 126.477 345.468 126.477 341.462V149.671C126.477 145.665 124.679 142.46 122.381 142.66L34.6736 154.378C32.6757 154.578 31.0774 157.683 31.0774 161.489V331.748C31.0774 335.453 32.6757 338.658 34.6736 338.758Z" fill="#FFD493"/>
<path id="Path_3" d="M274.821 341.763L122.681 348.473C118.785 348.673 115.588 345.468 115.588 341.462V149.671C115.588 145.665 118.785 142.46 122.681 142.66L274.821 149.37C278.217 149.571 281.014 152.675 281.014 156.481V334.752C281.014 338.458 278.217 341.663 274.821 341.763Z" fill="#FFBE5C"/>
<path id="Path_4" d="M121.682 149.369V342.262L274.621 335.853V154.878L121.682 149.369Z" fill="#FFD493"/>
<path id="Path_5" opacity="0.16" d="M196.603 339.156L274.62 335.851V154.876L196.603 152.072L196.603 339.156Z" fill="#999999"/>
<path id="Path_6" d="M152.449 277.466H121.681V342.264L163.837 340.461C164.336 339.159 164.536 337.757 164.536 336.355V289.584C164.536 282.974 159.142 277.466 152.449 277.466V277.466Z" fill="#FFBE5C"/>
<g id="Group">
<path id="Oval" d="M138.464 203.652C140.56 203.652 142.26 201.589 142.26 199.045C142.26 196.5 140.56 194.438 138.464 194.438C136.367 194.438 134.668 196.5 134.668 199.045C134.668 201.589 136.367 203.652 138.464 203.652Z" fill="#DD7E10"/>
<path id="Oval_2" d="M150.352 203.652C152.448 203.652 154.148 201.589 154.148 199.045C154.148 196.5 152.448 194.438 150.352 194.438C148.255 194.438 146.556 196.5 146.556 199.045C146.556 201.589 148.255 203.652 150.352 203.652Z" fill="#DD7E10"/>
<path id="Oval_3" d="M162.339 203.652C164.436 203.652 166.135 201.589 166.135 199.045C166.135 196.5 164.436 194.438 162.339 194.438C160.243 194.438 158.543 196.5 158.543 199.045C158.543 201.589 160.243 203.652 162.339 203.652Z" fill="#DD7E10"/>
</g>
<path id="Shape_2" d="M128.174 215.117C127.204 215.117 126.418 215.903 126.418 216.873C126.418 217.844 127.204 218.63 128.174 218.63V215.117ZM128.302 260.991C127.334 260.921 126.493 261.648 126.423 262.616C126.352 263.583 127.08 264.425 128.047 264.495L128.302 260.991ZM140.661 215.117C139.691 215.117 138.905 215.903 138.905 216.873C138.905 217.844 139.691 218.63 140.661 218.63V215.117ZM140.789 260.991C139.821 260.921 138.98 261.648 138.909 262.616C138.839 263.583 139.567 264.425 140.534 264.495L140.789 260.991ZM153.148 215.117C152.178 215.117 151.392 215.903 151.392 216.873C151.392 217.844 152.178 218.63 153.148 218.63V215.117ZM153.275 260.991C152.308 260.921 151.467 261.648 151.396 262.616C151.326 263.583 152.053 264.425 153.021 264.495L153.275 260.991ZM165.536 215.117C164.565 215.117 163.779 215.903 163.779 216.873C163.779 217.844 164.565 218.63 165.536 218.63V215.117ZM165.663 260.991C164.695 260.921 163.854 261.648 163.784 262.616C163.713 263.583 164.441 264.425 165.408 264.495L165.663 260.991ZM128.174 218.63C129.95 218.63 131.128 219.294 131.924 220.386C132.776 221.556 133.311 223.396 133.311 225.887H136.824C136.824 222.97 136.209 220.303 134.764 218.318C133.262 216.256 130.994 215.117 128.174 215.117V218.63ZM133.311 225.887V254.13H136.824V225.887H133.311ZM133.311 254.13C133.311 258.168 131.833 259.691 130.73 260.34C130.113 260.703 129.482 260.869 128.995 260.941C128.754 260.977 128.559 260.988 128.432 260.991C128.37 260.992 128.325 260.991 128.302 260.991C128.291 260.99 128.284 260.99 128.284 260.99C128.284 260.99 128.286 260.99 128.288 260.99C128.29 260.99 128.292 260.991 128.294 260.991C128.295 260.991 128.296 260.991 128.298 260.991C128.298 260.991 128.299 260.991 128.3 260.991C128.301 260.991 128.302 260.991 128.174 262.743C128.047 264.495 128.048 264.495 128.049 264.495C128.05 264.495 128.051 264.495 128.052 264.495C128.054 264.495 128.056 264.496 128.057 264.496C128.061 264.496 128.066 264.496 128.07 264.497C128.08 264.497 128.091 264.498 128.104 264.498C128.13 264.5 128.163 264.501 128.202 264.502C128.28 264.505 128.383 264.506 128.509 264.503C128.76 264.497 129.103 264.477 129.508 264.417C130.313 264.298 131.405 264.019 132.512 263.368C134.855 261.989 136.824 259.205 136.824 254.13H133.311ZM140.661 218.63C142.437 218.63 143.615 219.294 144.411 220.386C145.263 221.556 145.798 223.396 145.798 225.887H149.311C149.311 222.97 148.696 220.303 147.251 218.318C145.749 216.256 143.481 215.117 140.661 215.117V218.63ZM145.798 225.887V254.13H149.311V225.887H145.798ZM145.798 254.13C145.798 258.168 144.32 259.691 143.217 260.34C142.6 260.703 141.969 260.869 141.482 260.941C141.241 260.977 141.045 260.988 140.919 260.991C140.856 260.992 140.812 260.991 140.789 260.991C140.777 260.99 140.771 260.99 140.771 260.99C140.771 260.99 140.772 260.99 140.775 260.99C140.777 260.99 140.779 260.991 140.781 260.991C140.782 260.991 140.783 260.991 140.784 260.991C140.785 260.991 140.786 260.991 140.786 260.991C140.788 260.991 140.789 260.991 140.661 262.743C140.534 264.495 140.535 264.495 140.536 264.495C140.537 264.495 140.538 264.495 140.539 264.495C140.541 264.495 140.542 264.496 140.544 264.496C140.548 264.496 140.553 264.496 140.557 264.497C140.567 264.497 140.578 264.498 140.591 264.498C140.617 264.5 140.65 264.501 140.689 264.502C140.766 264.505 140.87 264.506 140.996 264.503C141.246 264.497 141.59 264.477 141.995 264.417C142.8 264.298 143.892 264.019 144.999 263.368C147.342 261.989 149.311 259.205 149.311 254.13H145.798ZM153.148 218.63C154.924 218.63 156.102 219.294 156.898 220.386C157.75 221.556 158.284 223.396 158.284 225.887H161.797C161.797 222.97 161.183 220.303 159.738 218.318C158.236 216.256 155.968 215.117 153.148 215.117V218.63ZM158.284 225.887V254.13H161.797V225.887H158.284ZM158.284 254.13C158.284 258.168 156.807 259.691 155.704 260.34C155.087 260.703 154.456 260.869 153.969 260.941C153.728 260.977 153.532 260.988 153.406 260.991C153.343 260.992 153.299 260.991 153.276 260.991C153.264 260.99 153.258 260.99 153.258 260.99C153.258 260.99 153.259 260.99 153.262 260.99C153.264 260.99 153.265 260.991 153.268 260.991C153.269 260.991 153.27 260.991 153.271 260.991C153.272 260.991 153.273 260.991 153.273 260.991C153.274 260.991 153.275 260.991 153.148 262.743C153.021 264.495 153.022 264.495 153.023 264.495C153.024 264.495 153.025 264.495 153.026 264.495C153.027 264.495 153.029 264.496 153.031 264.496C153.035 264.496 153.039 264.496 153.044 264.497C153.054 264.497 153.065 264.498 153.078 264.498C153.104 264.5 153.136 264.501 153.175 264.502C153.253 264.505 153.357 264.506 153.483 264.503C153.733 264.497 154.076 264.477 154.482 264.417C155.287 264.298 156.379 264.019 157.485 263.368C159.829 261.989 161.797 259.205 161.797 254.13H158.284ZM165.536 218.63C167.311 218.63 168.49 219.294 169.285 220.386C170.138 221.556 170.672 223.396 170.672 225.887H174.185C174.185 222.97 173.57 220.303 172.125 218.318C170.623 216.256 168.355 215.117 165.536 215.117V218.63ZM170.672 225.887V254.13H174.185V225.887H170.672ZM170.672 254.13C170.672 258.168 169.194 259.691 168.091 260.34C167.474 260.703 166.844 260.869 166.356 260.941C166.115 260.977 165.92 260.988 165.793 260.991C165.731 260.992 165.686 260.991 165.663 260.991C165.652 260.99 165.646 260.99 165.645 260.99C165.645 260.99 165.647 260.99 165.65 260.99C165.651 260.99 165.653 260.991 165.655 260.991C165.656 260.991 165.657 260.991 165.659 260.991C165.659 260.991 165.66 260.991 165.661 260.991C165.662 260.991 165.663 260.991 165.536 262.743C165.408 264.495 165.409 264.495 165.411 264.495C165.411 264.495 165.412 264.495 165.413 264.495C165.415 264.495 165.417 264.496 165.419 264.496C165.423 264.496 165.427 264.496 165.432 264.497C165.441 264.497 165.452 264.498 165.465 264.498C165.491 264.5 165.524 264.501 165.563 264.502C165.641 264.505 165.744 264.506 165.87 264.503C166.121 264.497 166.464 264.477 166.869 264.417C167.674 264.298 168.766 264.019 169.873 263.368C172.216 261.989 174.185 259.205 174.185 254.13H170.672Z" fill="#DD7E10"/>
<g id="Group_2">
<path id="Path_7" d="M337.854 353.278L187.012 361.991C183.116 362.191 179.62 359.086 179.32 355.08L162.139 163.289C161.739 159.283 164.636 156.078 168.632 156.178L320.672 160.885C324.068 160.985 327.165 164.09 327.465 167.896L343.348 346.167C343.648 349.872 341.25 353.077 337.854 353.278Z" fill="#FFBE5C"/>
<path id="Oval_4" d="M171.029 170.6C173.512 170.6 175.524 168.403 175.524 165.692C175.524 162.982 173.512 160.785 171.029 160.785C168.546 160.785 166.534 162.982 166.534 165.692C166.534 168.403 168.546 170.6 171.029 170.6Z" fill="white"/>
<path id="Oval_5" d="M319.973 174.304C322.455 174.304 324.468 172.107 324.468 169.397C324.468 166.686 322.455 164.489 319.973 164.489C317.49 164.489 315.478 166.686 315.478 169.397C315.478 172.107 317.49 174.304 319.973 174.304Z" fill="#FFD493"/>
<path id="Oval_6" d="M188.51 359.187C190.993 359.187 193.006 356.989 193.006 354.279C193.006 351.569 190.993 349.372 188.51 349.372C186.028 349.372 184.015 351.569 184.015 354.279C184.015 356.989 186.028 359.187 188.51 359.187Z" fill="white"/>
<path id="Oval_7" d="M335.456 350.373C337.939 350.373 339.952 348.176 339.952 345.466C339.952 342.755 337.939 340.558 335.456 340.558C332.974 340.558 330.961 342.755 330.961 345.466C330.961 348.176 332.974 350.373 335.456 350.373Z" fill="white"/>
<path id="Path_8" d="M327.465 167.896C327.165 164.19 324.068 160.985 320.672 160.885L224.173 157.881L229.168 213.165C229.568 217.872 234.063 221.577 239.257 221.477L276.318 221.077C291.802 221.277 293.6 233.596 297.596 240.807C298.295 242.109 300.293 241.908 300.593 240.606C302.191 233.796 303.59 220.776 315.877 220.676L332.06 220.476L327.465 167.896Z" fill="#DCA553" fill-opacity="0.7"/>
</g>
<path id="Path_9" d="M121.682 287.179H151.45C154.047 287.179 155.846 288.982 155.846 291.085C155.846 293.288 154.047 294.991 151.45 294.991H121.682" stroke="#FFD493" stroke-width="4" stroke-linejoin="round"/>
<path id="Path_10" d="M372.617 84.7727L254.941 81.1672C249.846 81.3675 245.651 85.7742 245.651 90.882V174.709C245.651 179.917 249.846 184.024 254.941 183.823L292.002 183.423C307.485 183.623 308.085 197.244 311.481 205.156C312.081 206.558 314.079 206.358 314.478 204.955C316.676 197.444 319.273 183.222 331.56 183.022L372.417 182.621C377.712 182.521 382.107 178.115 382.107 172.807V93.8866C382.207 88.6787 377.911 84.5724 372.617 84.7727Z" fill="#FFD493"/>
<path id="Shape_3" fill-rule="evenodd" clip-rule="evenodd" d="M288.206 117.02L265.23 127.736V135.849L295.898 121.527V112.613L265.23 97.5906V105.803L288.206 117.02ZM330.062 144.562L299.294 144.161V151.873L330.062 152.374V144.562Z" fill="#DD7E10"/>
</g>
</g>
</svg>
